X: 9
T: No_109_Song_Addressed_to_a_Shark.krn
N: Derived from No_109_Song_Addressed_to_a_Shark.krn
%%abc-version 2.0
%%abcx-abcm2ps-target-version 5.9.1 (29 Sep 2008)
%%abc-creator hum2abc beta
%%abcx-conversion-date 2019/03/15 08:36:13
%%humdrum-veritas 3127287926
%%humdrum-veritas-data 1344887040
%%linebreak <none>
%%barnumbers 0
L: 1/8
M: 2/4
K: G clef=bass
[K:clef=bass][M:2/4]z2B,B, | 
B,3B, | 
A,2A,2 | 
G,3G, | 
G,2G,2 | 
(E,D,) D, z | 
E,2G,B,/B,/ | 
(A,3/G,/) E,3/A,/ | 
G,4- | 
(G,2E,/) z/ G,/G,/ | 
G,3G, | 
E,D,- D, z |]  



